SVG_Azure_All/Compute and App.svg

<?xml version="1.0" encoding="UTF-8" standalone="no"?>
<!-- Generated by Microsoft Visio, SVG Export Compute and App.svg Page-1 -->

<svg
   xmlns:dc="http://purl.org/dc/elements/1.1/"
   xmlns:cc="http://creativecommons.org/ns#"
   xmlns:rdf="http://www.w3.org/1999/02/22-rdf-syntax-ns#"
   xmlns:svg="http://www.w3.org/2000/svg"
   xmlns="http://www.w3.org/2000/svg"
   xmlns:sodipodi="http://sodipodi.sourceforge.net/DTD/sodipodi-0.dtd"
   xmlns:inkscape="http://www.inkscape.org/namespaces/inkscape"
   width="0.78739864in"
   height="0.78735in"
   viewBox="0 0 56.692856 56.689282"
   xml:space="preserve"
   class="st9"
   version="1.1"
   id="svg74"
   sodipodi:docname="Compute and App.svg"
   style="font-size:12px;overflow:visible;color-interpolation-filters:sRGB;fill:none;fill-rule:evenodd;stroke-linecap:square;stroke-miterlimit:3"
   inkscape:version="0.92.5 (2060ec1f9f, 2020-04-08)"><metadata
   id="metadata80"><rdf:RDF><cc:Work
       rdf:about=""><dc:format>image/svg+xml</dc:format><dc:type
         rdf:resource="http://purl.org/dc/dcmitype/StillImage" /></cc:Work></rdf:RDF></metadata><defs
   id="defs78" /><sodipodi:namedview
   pagecolor="#ffffff"
   bordercolor="#666666"
   borderopacity="1"
   objecttolerance="10"
   gridtolerance="10"
   guidetolerance="10"
   inkscape:pageopacity="0"
   inkscape:pageshadow="2"
   inkscape:window-width="640"
   inkscape:window-height="480"
   id="namedview76"
   showgrid="false"
   inkscape:zoom="1.6115252"
   inkscape:cx="37.796403"
   inkscape:cy="27.863066"
   inkscape:window-x="0"
   inkscape:window-y="0"
   inkscape:window-maximized="0"
   inkscape:current-layer="svg74" />
	<style
   type="text/css"
   id="style2">
	<![CDATA[
		.st1 {fill:#7c7b7b;stroke:none;stroke-linecap:butt;stroke-width:19.125}
		.st2 {fill:#9fa0a2;stroke:none;stroke-linecap:butt;stroke-width:19.125}
		.st3 {fill:#ffffff;fill-opacity:0.2;stroke:none;stroke-linecap:butt;stroke-width:19.125}
		.st4 {fill:#5bb4da;stroke:none;stroke-linecap:butt;stroke-width:19.125}
		.st5 {fill:#b8d433;stroke:none;stroke-linecap:butt;stroke-width:19.125}
		.st6 {fill:#ffffff;stroke:none;stroke-linecap:butt;stroke-width:19.125}
		.st7 {fill:#ffffff;fill-opacity:0.7;stroke:none;stroke-linecap:butt;stroke-width:19.125}
		.st8 {fill:#ffffff;fill-opacity:0.4;stroke:none;stroke-linecap:butt;stroke-width:19.125}
		.st9 {fill:none;fill-rule:evenodd;font-size:12px;overflow:visible;stroke-linecap:square;stroke-miterlimit:3}
	]]>
	</style>

	<g
   id="g72"
   transform="translate(-19.124871,-19.125072)">
		<title
   id="title4">Page-1</title>
		<g
   id="group6262-1"
   transform="translate(19.1265,-34.0157)">
			<title
   id="title6">Compute and App</title>
			<g
   id="group6263-2">
				<title
   id="title8"> Dashboard_computeapps-pathfind</title>
				<g
   id="shape6264-3"
   transform="translate(8.37998,-11.8077)">
					<title
   id="title10">path6</title>
					<path
   d="m 20.07,109.1 v -0.05 c 0,-3.2 0.97,-6.17 2.62,-8.65 l -0.04,0.06 H 9.96 c 1.59,5.61 -0.54,6.4 -9.96,6.4 v 2.97 h 20.07 z"
   class="st1"
   id="path12"
   inkscape:connector-curvature="0"
   style="fill:#7c7b7b;stroke:none;stroke-width:19.125;stroke-linecap:butt" />
				</g>
				<g
   id="shape6265-5"
   transform="translate(0,-21.1793)">
					<title
   id="title15">path8</title>
					<path
   d="m 44.2,102.73 a 15.6058,15.5808 0 0 1 4.63,0.7 L 48.71,103.4 V 77.16 A 3.018,3.01318 -180 0 0 45.77,74.32 H 2.65 A 2.76191,2.7575 -180 0 0 0,77.17 v -0.01 29.96 a 2.73345,2.72909 -180 0 0 2.64,2.71 H 31.1 c 2.84,-4.28 7.65,-7.07 13.1,-7.1 z"
   class="st2"
   id="path17"
   inkscape:connector-curvature="0"
   style="fill:#9fa0a2;stroke:none;stroke-width:19.125;stroke-linecap:butt" />
				</g>
				<g
   id="shape6266-7"
   transform="translate(0,-21.1793)">
					<title
   id="title20">path10</title>
					<path
   d="M 45.77,74.32 H 2.65 A 2.76191,2.7575 -180 0 0 0,77.17 v -0.01 29.96 a 2.73345,2.72909 -180 0 0 2.64,2.71 H 3.67 L 45.8,74.32 Z"
   class="st3"
   id="path22"
   inkscape:connector-curvature="0"
   style="fill:#ffffff;fill-opacity:0.2;stroke:none;stroke-width:19.125;stroke-linecap:butt" />
				</g>
				<g
   id="shape6267-9"
   transform="translate(3.69914,-24.9027)">
					<title
   id="title25">path12</title>
					<path
   d="m 40.51,106.45 h 0.71 V 81.79 H 0 v 28.04 h 30.77 a 15.5471,15.5222 0 0 1 9.73,-3.38 z"
   class="st4"
   id="path27"
   inkscape:connector-curvature="0"
   style="fill:#5bb4da;stroke:none;stroke-width:19.125;stroke-linecap:butt" />
				</g>
				<g
   id="shape6268-11"
   transform="translate(3.69914,-24.8885)">
					<title
   id="title30">path14</title>
					<path
   d="M 0,109.83 H 0.04 V 81.78 L 37.73,81.72 0,81.78 Z"
   class="st4"
   id="path32"
   inkscape:connector-curvature="0"
   style="fill:#5bb4da;stroke:none;stroke-width:19.125;stroke-linecap:butt" />
				</g>
				<g
   id="shape6269-13"
   transform="translate(23.4611,-53.9656)">
					<title
   id="title35">path16</title>
					<path
   d="m 1.39,109.14 v 0.01 a 0.682919,0.681828 0 0 1 -0.682919,0.68183 0.711374,0.710237 0 1 1 0,-1.42047 C 1.09,108.41 1.39,108.72 1.39,109.1 Z"
   class="st5"
   id="path37"
   inkscape:connector-curvature="0"
   style="fill:#b8d433;stroke:none;stroke-width:19.125;stroke-linecap:butt" />
				</g>
				<g
   id="shape6270-15"
   transform="translate(16.0913,-39.7733)">
					<title
   id="title40">path18</title>
					<path
   d="M 8.79,109.83 H 8.66 L 0.13,104.89 A 0.313004,0.312504 0 0 1 0.001953,104.6645 L 0,104.66 c 0,-0.09 0.05,-0.18 0.13,-0.23 v 0 l 8.53,-4.91 a 0.2721,0.271666 0 0 1 0.257873,0.0018 L 8.92,99.52 l 8.54,4.94 c 0.07,0.06 0.12,0.14 0.13,0.23 v 0 a 0.2721,0.271666 0 0 1 -0.126269,0.22728 L 17.46,104.92 8.92,109.83 H 8.78 Z"
   class="st6"
   id="path42"
   inkscape:connector-curvature="0"
   style="fill:#ffffff;stroke:none;stroke-width:19.125;stroke-linecap:butt" />
				</g>
				<g
   id="shape6271-17"
   transform="translate(14.8677,-27.7454)">
					<title
   id="title45">path20</title>
					<path
   d="m 8.79,109.82 c -0.02,0.01 -0.04,0.01 -0.06,0.01 -0.02,0 -0.05,0 -0.07,-0.01 v 0 L 0.13,104.91 A 0.313004,0.312504 0 0 1 0.001953,104.6845 L 0,94.74 c 0,-0.1 0.05,-0.18 0.13,-0.23 v 0 c 0.04,-0.03 0.08,-0.04 0.13,-0.04 0.05,0 0.1,0.01 0.14,0.04 l 8.53,4.93 a 0.268544,0.268115 0 0 1 0.128047,0.227276 L 9.06,109.61 a 0.273879,0.273441 0 0 1 -0.126269,0.21307 L 8.93,109.82 a 0.241867,0.241481 0 0 1 -0.129826,0 H 8.81 Z"
   class="st7"
   id="path47"
   inkscape:connector-curvature="0"
   style="fill:#ffffff;fill-opacity:0.7;stroke:none;stroke-width:19.125;stroke-linecap:butt" />
				</g>
				<g
   id="shape6272-19"
   transform="translate(25.8229,-27.7578)">
					<title
   id="title50">path22</title>
					<path
   d="M 0.26,109.83 H 0.11 a 0.254316,0.25391 0 0 1 -0.11382,-0.21307 L 0,99.73 c 0,-0.08 0.04,-0.16 0.11,-0.21 h 0.01 l 8.53,-4.93 a 0.302334,0.301851 0 0 1 0.2721,0.0018 L 8.92,94.59 c 0.07,0.06 0.12,0.14 0.13,0.23 v 9.83 a 0.314783,0.31428 0 0 1 -0.128047,0.22728 L 0.39,109.79 a 0.241867,0.241481 0 0 1 -0.129826,0 H 0.26 Z"
   class="st8"
   id="path52"
   inkscape:connector-curvature="0"
   style="fill:#ffffff;fill-opacity:0.4;stroke:none;stroke-width:19.125;stroke-linecap:butt" />
				</g>
				<g
   id="shape6273-21"
   transform="translate(32.3812)">
					<title
   id="title55">path24</title>
					<path
   d="m 19.36,107.12 a 12.7176,12.6973 0 0 1 -7.89,2.71 12.8047,12.7843 0 1 1 10.19,-20.53 l 0.02,0.03 a 12.634,12.6138 0 0 1 2.63,7.73 12.7016,12.6813 0 0 1 -4.92,10.04 z"
   class="st4"
   id="path57"
   inkscape:connector-curvature="0"
   style="fill:#5bb4da;stroke:none;stroke-width:19.125;stroke-linecap:butt" />
				</g>
				<g
   id="shape6274-23"
   transform="translate(33.15,-2.97589)">
					<title
   id="title60">path26</title>
					<path
   d="m 16.25,102.28 a 2.84372,2.83917 -180 0 0 3.86,0.51 H 20.1 l 0.16,-0.17 2.58,1.79 c 0.11,-0.28 0.22,-0.64 0.32,-1.02 l 0.02,-0.07 a 68.299,68.1899 0 0 1 -2.19,-1.72 2.71745,2.71311 -180 0 0 -3.93,-3.32 h 0.01 a 154.75,154.503 0 0 1 -4.27,-4 14.8268,14.8031 0 0 1 8.13,-2.15 h -0.01 c -0.58,-0.71 -1.21,-1.34 -1.9,-1.9 L 19,90.21 a 13.5232,13.5016 -180 0 0 -8.61,1.62 L 10.46,91.8 A 112.708,112.528 0 0 1 6.89,87.87 c -0.67,0.22 -1.23,0.45 -1.77,0.72 l 0.07,-0.03 a 27.7863,27.7419 -180 0 0 3.47,4.36 H 8.65 A 23.9804,23.9421 -180 0 0 5.12,95.96 L 5.11,95.97 4.68,96.46 A 3.65468,3.64884 -180 0 0 2.55,96.61 L 2.58,96.6 A 9.17316,9.15851 0 0 1 1.6,92.46 c 0,-0.49 0.04,-0.97 0.12,-1.44 l -0.01,0.05 c -0.51,0.5 -0.98,1.04 -1.4,1.62 l -0.02,0.04 a 8.02074,8.00793 -180 0 0 -0.21,1.82 c 0,1.2 0.26,2.35 0.73,3.37 L 0.78,97.87 C 0.3,98.51 0,99.33 0,100.21 c 0,0.88 0.3,1.69 0.79,2.35 l -0.01,-0.01 c 0.09,0.11 0.19,0.21 0.29,0.32 a 18.2556,18.2265 -180 0 0 -0.74,4.42 v 0.04 c 0.11,0.16 0.11,0.3 0.24,0.46 0.63,0.76 1.33,1.43 2.09,2.02 l 0.03,0.02 a 13.8789,13.8567 0 0 1 0.9,-5.89 l -0.03,0.1 a 3.82897,3.82285 -180 0 0 1.8,-0.29 H 5.34 l 1.04,0.87 c 1.08,0.87 2.3,1.65 3.59,2.31 l 0.12,0.05 a 2.60541,2.60124 -180 0 0 0.5,1.81 v -0.01 a 2.54138,2.53732 -180 0 0 3.56,0.47 h -0.01 a 2.96998,2.96524 -180 0 0 0.57,-0.61 v -0.01 c 1.47,0.33 3.15,0.52 4.87,0.52 h 0.13 v 0 c 0.65,-0.55 1.2,-1.17 1.67,-1.87 l 0.02,-0.03 a 12.9417,12.921 0 0 1 -2.26,0.19 13.3116,13.2903 0 0 1 -4.11,-0.64 l 0.1,0.02 a 2.39022,2.3864 -180 0 0 -0.46,-1.01 v 0 a 2.53249,2.52844 -180 0 0 -3.38,-0.57 l 0.01,-0.01 c -1.31,-0.71 -2.44,-1.47 -3.48,-2.32 l 0.04,0.03 c -0.24,-0.18 -0.49,-0.36 -0.7,-0.56 0.37,-0.59 0.59,-1.3 0.59,-2.06 0,-0.65 -0.16,-1.26 -0.44,-1.8 l 0.01,0.02 c 0.14,-0.16 0.3,-0.3 0.44,-0.44 A 26.5325,26.4901 0 0 1 11,95.47 l 0.09,-0.05 -0.13,-0.2 c 0.03,0.04 0.07,0.08 0.11,0.11 v 0 c 1.6,1.42 3.29,2.84 4.88,4.11 a 2.72456,2.72021 -180 0 0 0.3,2.84 z"
   class="st6"
   id="path62"
   inkscape:connector-curvature="0"
   style="fill:#ffffff;stroke:none;stroke-width:19.125;stroke-linecap:butt" />
				</g>
				<g
   id="shape6275-25"
   transform="translate(8.43689,-11.8059)">
					<title
   id="title65">path28</title>
					<path
   d="m 20.02,109.1 a 16.4327,16.4065 0 0 1 0.18,-2.3 l -0.01,0.09 H 0 v 2.94 h 20.02 z"
   class="st2"
   id="path67"
   inkscape:connector-curvature="0"
   style="fill:#9fa0a2;stroke:none;stroke-width:19.125;stroke-linecap:butt" />
				</g>
			</g>
		</g>
	</g>
</svg>

<?xml version="1.0" encoding="UTF-8" standalone="no"?>
<!DOCTYPE svg PUBLIC "-//W3C//DTD SVG 1.1//EN" "http://www.w3.org/Graphics/SVG/1.1/DTD/svg11.dtd">
<!-- Generated by Microsoft Visio, SVG Export Compute and App.svg Page-1 -->
<svg xmlns="http://www.w3.org/2000/svg" xmlns:xlink="http://www.w3.org/1999/xlink" xmlns:ev="http://www.w3.org/2001/xml-events"
		width="1.31867in" height="1.52547in" viewBox="0 0 94.9445 109.834" xml:space="preserve" color-interpolation-filters="sRGB"
		class="st9">
	<style type="text/css">
	<![CDATA[
		.st1 {fill:#7c7b7b;stroke:none;stroke-linecap:butt;stroke-width:19.125}
		.st2 {fill:#9fa0a2;stroke:none;stroke-linecap:butt;stroke-width:19.125}
		.st3 {fill:#ffffff;fill-opacity:0.2;stroke:none;stroke-linecap:butt;stroke-width:19.125}
		.st4 {fill:#5bb4da;stroke:none;stroke-linecap:butt;stroke-width:19.125}
		.st5 {fill:#b8d433;stroke:none;stroke-linecap:butt;stroke-width:19.125}
		.st6 {fill:#ffffff;stroke:none;stroke-linecap:butt;stroke-width:19.125}
		.st7 {fill:#ffffff;fill-opacity:0.7;stroke:none;stroke-linecap:butt;stroke-width:19.125}
		.st8 {fill:#ffffff;fill-opacity:0.4;stroke:none;stroke-linecap:butt;stroke-width:19.125}
		.st9 {fill:none;fill-rule:evenodd;font-size:12px;overflow:visible;stroke-linecap:square;stroke-miterlimit:3}
	]]>
	</style>

	<g>
		<title>Page-1</title>
		<g id="group6094-1" transform="translate(19.1265,-34.0157)">
			<title>Compute and App</title>
			<g id="group6095-2">
				<title> Dashboard_computeapps-pathfind</title>
				<g id="shape6096-3" transform="translate(8.37998,-11.8077)">
					<title>path6</title>
					<path d="M20.07 109.1 L20.07 109.05 C20.07 105.85 21.04 102.88 22.69 100.4 L22.65 100.46 L9.96 100.46 C11.55
								 106.07 9.42 106.86 0 106.86 L0 109.83 L20.07 109.83 L20.07 109.1 L20.07 109.1 Z" class="st1"/>
				</g>
				<g id="shape6097-5" transform="translate(-2.83773E-13,-21.1793)">
					<title>path8</title>
					<path d="M44.2 102.73 A15.6058 15.5808 0 0 1 48.83 103.43 L48.71 103.4 L48.71 77.16 A3.018 3.01318 -180 0 0 45.77
								 74.32 L2.65 74.32 A2.76191 2.7575 -180 0 0 0 77.17 L0 77.16 L0 107.12 A2.73345 2.72909 -180 0 0
								 2.64 109.83 L31.1 109.83 C33.94 105.55 38.75 102.76 44.2 102.73 L44.2 102.73 L44.2 102.73 Z"
							class="st2"/>
				</g>
				<g id="shape6098-7" transform="translate(2.79776E-13,-21.1793)">
					<title>path10</title>
					<path d="M45.77 74.32 L2.65 74.32 A2.76191 2.7575 -180 0 0 -0 77.17 L0 77.16 L0 107.12 A2.73345 2.72909 -180
								 0 0 2.64 109.83 L3.67 109.83 L45.8 74.32 L45.77 74.32 Z" class="st3"/>
				</g>
				<g id="shape6099-9" transform="translate(3.69914,-24.9027)">
					<title>path12</title>
					<path d="M40.51 106.45 L41.22 106.45 L41.22 81.79 L0 81.79 L0 109.83 L30.77 109.83 A15.5471 15.5222 0 0 1 40.5
								 106.45 L40.51 106.45 L40.51 106.45 Z" class="st4"/>
				</g>
				<g id="shape6100-11" transform="translate(3.69914,-24.8885)">
					<title>path14</title>
					<path d="M0 109.83 L0.04 109.83 L0.04 81.78 L37.73 81.72 L0 81.78 L0 109.83 Z" class="st4"/>
				</g>
				<g id="shape6101-13" transform="translate(23.4611,-53.9656)">
					<title>path16</title>
					<path d="M1.39 109.14 L1.39 109.15 a0.682919 0.681828 0 0 1 -0.682919 0.681828 a0.711374 0.710237 0 1 1 -9.99201E-15
								 -1.42047 C1.09 108.41 1.39 108.72 1.39 109.1 L1.39 109.14 Z" class="st5"/>
				</g>
				<g id="shape6102-15" transform="translate(16.0913,-39.7733)">
					<title>path18</title>
					<path d="M8.79 109.83 L8.66 109.83 L0.13 104.89 a0.313004 0.312504 0 0 1 -0.128047 -0.2255 L0 104.66 C0 104.57
								 0.05 104.48 0.13 104.43 L0.13 104.43 L8.66 99.52 a0.2721 0.271666 0 0 1 0.257873 0.00177559 L8.92
								 99.52 L17.46 104.46 C17.53 104.52 17.58 104.6 17.59 104.69 L17.59 104.69 a0.2721 0.271666 0 0 1
								 -0.126269 0.227276 L17.46 104.92 L8.92 109.83 L8.78 109.83 L8.79 109.83 Z" class="st6"/>
				</g>
				<g id="shape6103-17" transform="translate(14.8677,-27.7454)">
					<title>path20</title>
					<path d="M8.79 109.82 C8.77 109.83 8.75 109.83 8.73 109.83 C8.71 109.83 8.68 109.83 8.66 109.82 L8.66 109.82
								 L0.13 104.91 a0.313004 0.312504 0 0 1 -0.128047 -0.2255 L0 94.74 C0 94.64 0.05 94.56 0.13 94.51
								 L0.13 94.51 C0.17 94.48 0.21 94.47 0.26 94.47 C0.31 94.47 0.36 94.48 0.4 94.51 L8.93 99.44 a0.268544
								 0.268115 0 0 1 0.128047 0.227276 L9.06 109.61 a0.273879 0.273441 0 0 1 -0.126269 0.213071 L8.93
								 109.82 a0.241867 0.241481 0 0 1 -0.129826 0 L8.81 109.82 L8.79 109.82 Z" class="st7"/>
				</g>
				<g id="shape6104-19" transform="translate(25.8229,-27.7578)">
					<title>path22</title>
					<path d="M0.26 109.83 L0.11 109.83 a0.254316 0.25391 0 0 1 -0.11382 -0.213071 L0 99.73 C0 99.65 0.04 99.57 0.11
								 99.52 L0.12 99.52 L8.65 94.59 a0.302334 0.301851 0 0 1 0.2721 0.00177559 L8.92 94.59 C8.99 94.65
								 9.04 94.73 9.05 94.82 L9.05 104.65 a0.314783 0.31428 0 0 1 -0.128047 0.227276 L0.39 109.79 a0.241867
								 0.241481 0 0 1 -0.129826 0 L0.26 109.79 L0.26 109.83 Z" class="st8"/>
				</g>
				<g id="shape6105-21" transform="translate(32.3812,0)">
					<title>path24</title>
					<path d="M19.36 107.12 A12.7176 12.6973 0 0 1 11.47 109.83 A12.8047 12.7843 0 1 1 21.66 89.3 L21.68 89.33 A12.634
								 12.6138 0 0 1 24.31 97.06 A12.7016 12.6813 0 0 1 19.39 107.1 L19.36 107.12 L19.36 107.12 Z"
							class="st4"/>
				</g>
				<g id="shape6106-23" transform="translate(33.15,-2.97589)">
					<title>path26</title>
					<path d="M16.25 102.28 A2.84372 2.83917 -180 0 0 20.11 102.79 L20.1 102.79 L20.26 102.62 L22.84 104.41 C22.95
								 104.13 23.06 103.77 23.16 103.39 L23.18 103.32 A68.299 68.1899 0 0 1 20.99 101.6 A2.71745 2.71311
								 -180 0 0 17.06 98.28 L17.07 98.28 A154.75 154.503 0 0 1 12.8 94.28 A14.8268 14.8031 0 0 1 20.93
								 92.13 L20.92 92.13 C20.34 91.42 19.71 90.79 19.02 90.23 L19 90.21 A13.5232 13.5016 -180 0 0 10.39
								 91.83 L10.46 91.8 A112.708 112.528 0 0 1 6.89 87.87 C6.22 88.09 5.66 88.32 5.12 88.59 L5.19 88.56
								 A27.7863 27.7419 -180 0 0 8.66 92.92 L8.65 92.92 A23.9804 23.9421 -180 0 0 5.12 95.96 L5.11 95.97
								 L4.68 96.46 A3.65468 3.64884 -180 0 0 2.55 96.61 L2.58 96.6 A9.17316 9.15851 0 0 1 1.6 92.46 C1.6
								 91.97 1.64 91.49 1.72 91.02 L1.71 91.07 C1.2 91.57 0.73 92.11 0.31 92.69 L0.29 92.73 A8.02074 8.00793
								 -180 0 0 0.08 94.55 C0.08 95.75 0.34 96.9 0.81 97.92 L0.78 97.87 C0.3 98.51 0 99.33 0 100.21 C0
								 101.09 0.3 101.9 0.79 102.56 L0.78 102.55 C0.87 102.66 0.97 102.76 1.07 102.87 A18.2556 18.2265
								 -180 0 0 0.33 107.29 L0.33 107.33 C0.44 107.49 0.44 107.63 0.57 107.79 C1.2 108.55 1.9 109.22 2.66
								 109.81 L2.69 109.83 A13.8789 13.8567 0 0 1 3.59 103.94 L3.56 104.04 A3.82897 3.82285 -180 0 0 5.36
								 103.75 L5.34 103.75 L6.38 104.62 C7.46 105.49 8.68 106.27 9.97 106.93 L10.09 106.98 A2.60541 2.60124
								 -180 0 0 10.59 108.79 L10.59 108.78 A2.54138 2.53732 -180 0 0 14.15 109.25 L14.14 109.25 A2.96998
								 2.96524 -180 0 0 14.71 108.64 L14.71 108.63 C16.18 108.96 17.86 109.15 19.58 109.15 L19.71 109.15
								 L19.71 109.15 C20.36 108.6 20.91 107.98 21.38 107.28 L21.4 107.25 A12.9417 12.921 0 0 1 19.14 107.44
								 A13.3116 13.2903 0 0 1 15.03 106.8 L15.13 106.82 A2.39022 2.3864 -180 0 0 14.67 105.81 L14.67 105.81
								 A2.53249 2.52844 -180 0 0 11.29 105.24 L11.3 105.23 C9.99 104.52 8.86 103.76 7.82 102.91 L7.86 102.94
								 C7.62 102.76 7.37 102.58 7.16 102.38 C7.53 101.79 7.75 101.08 7.75 100.32 C7.75 99.67 7.59 99.06
								 7.31 98.52 L7.32 98.54 C7.46 98.38 7.62 98.24 7.76 98.1 A26.5325 26.4901 0 0 1 11 95.47 L11.09 95.42
								 L10.96 95.22 C10.99 95.26 11.03 95.3 11.07 95.33 L11.07 95.33 C12.67 96.75 14.36 98.17 15.95 99.44
								 A2.72456 2.72021 -180 0 0 16.25 102.28 L16.25 102.28 L16.25 102.28 Z" class="st6"/>
				</g>
				<g id="shape6107-25" transform="translate(8.43689,-11.8059)">
					<title>path28</title>
					<path d="M20.02 109.1 A16.4327 16.4065 0 0 1 20.2 106.8 L20.19 106.89 L0 106.89 L0 109.83 L20.02 109.83 L20.02
								 109.1 Z" class="st2"/>
				</g>
			</g>
		</g>
	</g>
</svg>
